public/svg/arrow4.svg

<svg width="146" height="147" viewBox="0 0 146 147" fill="none" xmlns="http://www.w3.org/2000/svg">
<path d="M92.1845 1.44412L90.9375 2.40469C90.1488 3.07316 88.9083 3.91349 87.4365 5.18627C85.9647 6.45905 84.1759 7.98084 82.1624 9.81484L79.1148 12.7922C78.0522 13.8651 76.9759 15.037 75.8716 16.2656C73.6702 18.7439 71.3286 21.4634 69.0876 24.5359C66.7088 27.7331 64.4921 31.0477 62.4458 34.4673C60.243 38.1226 58.2312 41.8897 56.4187 45.7535C54.5263 49.7439 52.8557 53.8359 51.4144 58.0105C49.9678 62.1928 48.7559 66.4527 47.7844 70.7701C46.8405 74.9677 46.1384 79.216 45.6815 83.4941C45.4793 85.574 45.2699 87.6185 45.216 89.6482C45.1621 91.6779 45.0583 93.63 45.0249 95.5253C44.9916 97.4205 45.1208 99.3079 45.1435 101.09C45.1662 102.872 45.3938 104.631 45.5998 106.313C45.8059 107.995 45.9548 109.564 46.2378 111.069C46.5208 112.574 46.7326 113.994 47.0077 115.322L47.8809 119.002C48.1622 120.139 48.5208 121.198 48.7514 122.102C48.982 123.006 49.2548 123.867 49.5199 124.58L50.1508 126.388L50.6953 127.884C50.7247 128.005 50.7777 128.12 50.8514 128.221C50.925 128.322 51.0178 128.408 51.1245 128.473C51.2312 128.538 51.3496 128.581 51.4731 128.601C51.5966 128.62 51.7227 128.615 51.8442 128.586C51.9657 128.556 52.0803 128.503 52.1813 128.43C52.2823 128.356 52.3678 128.263 52.433 128.156C52.4981 128.05 52.5416 127.931 52.561 127.808C52.5804 127.684 52.5752 127.558 52.5458 127.437L52.298 125.882C52.1447 124.872 51.8336 123.41 51.5842 121.53L51.1097 118.428L50.6538 114.767C50.3372 112.159 50.0827 109.205 49.8551 105.982C49.7484 104.37 49.7191 102.694 49.6118 100.955C49.5045 99.2162 49.51 97.4201 49.5648 95.5742C49.5401 91.8762 49.7689 87.9789 50.0962 83.9679C50.1762 82.9635 50.3057 81.9517 50.414 80.9329C50.5223 79.9141 50.6376 78.8883 50.7953 77.8622L51.2259 74.7559L51.7696 71.6349C52.5454 67.4094 53.5402 63.227 54.7502 59.1047C55.9109 54.9491 57.3007 50.8609 58.913 46.8588C60.5063 42.9953 62.3277 39.2299 64.3674 35.5825C64.8651 34.6679 65.3912 33.7815 65.8752 32.966L67.4187 30.4271C68.507 28.8026 69.5315 27.1713 70.6772 25.7163C72.7979 22.6231 75.0547 19.9182 77.1854 17.4402C78.2685 16.2187 79.3592 15.1033 80.3652 14.0166L83.3775 11.0606L86.1162 8.56553C86.9894 7.81181 87.7997 7.20688 88.5674 6.55973C90.0041 5.35076 91.2515 4.47503 92.0759 3.87004L93.3232 2.96603C93.5041 2.81016 93.6197 2.59187 93.6469 2.35462C93.6741 2.11738 93.611 1.87859 93.4701 1.68579C93.3292 1.49298 93.1209 1.36032 92.8866 1.31421C92.6523 1.26809 92.4092 1.31191 92.2057 1.43694L92.1845 1.44412Z" fill="#C1CEBE"/>
<path d="M38.236 126.536C39.038 127.148 39.748 127.766 40.4793 128.378C41.2105 128.99 41.8927 129.694 42.5819 130.376C43.9475 131.743 45.2318 133.189 46.4281 134.707C47.0542 135.496 47.5952 136.242 48.1505 137.032C48.7058 137.821 49.2189 138.639 49.7318 139.443C50.7367 141.085 51.6569 142.757 52.4855 144.492C52.6204 144.791 52.8378 145.045 53.1121 145.224C53.3864 145.403 53.7061 145.5 54.0337 145.504C54.3613 145.507 54.6831 145.417 54.9613 145.244C55.2395 145.071 55.4625 144.822 55.604 144.527L55.7301 144.272L56.8147 141.884C57.1857 141.097 57.578 140.331 57.9349 139.545C58.2917 138.758 58.6769 137.986 59.0338 137.199L60.1115 134.846C60.8252 133.273 61.4752 131.679 62.0613 130.035C62.6679 128.374 63.1398 126.667 63.4723 124.93C63.5109 124.661 63.4445 124.387 63.2868 124.166C63.1291 123.944 62.8922 123.791 62.6251 123.739C62.4671 123.702 62.3021 123.703 62.1446 123.743C61.9871 123.783 61.8417 123.861 61.7211 123.97C61.1087 124.636 60.5359 125.338 60.0058 126.071C59.486 126.795 58.9875 127.54 58.5245 128.292C57.5946 129.796 56.7681 131.361 56.0508 132.978C55.3372 134.593 54.6521 136.223 54.0306 137.859C53.4091 139.496 52.8657 141.195 52.3576 142.888L55.5595 142.625C54.9757 141.793 54.3708 140.983 53.7518 140.187C53.1328 139.391 52.4997 138.609 51.8596 137.834C51.2195 137.06 50.5583 136.306 49.9041 135.546C49.2499 134.785 48.5746 134.046 47.8993 133.307C47.224 132.567 46.5276 131.849 45.8382 131.124L43.7068 129.013C42.9963 128.309 42.328 127.563 41.5753 126.902L39.4439 124.791C39.2404 124.622 38.978 124.54 38.7144 124.564C38.4507 124.587 38.2072 124.715 38.0373 124.918C37.8507 125.106 37.7465 125.361 37.7478 125.626C37.7491 125.892 37.8557 126.145 38.0441 126.332C38.0441 126.332 38.2289 126.543 38.236 126.536Z" fill="#C1CEBE"/>
</svg>

<svg xmlns="http://www.w3.org/2000/svg" width="146" height="147" fill="#c1cebe" xmlns:v="https://vecta.io/nano"><path d="M92.185 1.444l-1.247.96-3.5 2.782-5.274 4.63-3.048 2.977-3.243 3.473c-2.2 2.478-4.543 5.198-6.784 8.27-2.38 3.197-4.596 6.512-6.642 9.93a123.4 123.4 0 0 0-6.027 11.286 120 120 0 0 0-5.004 12.257c-1.447 4.182-2.66 8.442-3.63 12.76a112.41 112.41 0 0 0-2.103 12.724c-.202 2.08-.412 4.124-.465 6.154l-.2 5.877c-.033 1.895.096 3.783.12 5.565s.25 3.54.456 5.223.355 3.25.638 4.756l.77 4.253.873 3.68c.28 1.137.64 2.196.87 3.1a24.35 24.35 0 0 0 .77 2.478l.63 1.808.545 1.496a.97.97 0 0 0 .156.337.95.95 0 0 0 .273.252c.107.065.225.108.35.128a.94.94 0 0 0 .37-.015.97.97 0 0 0 .337-.156.94.94 0 0 0 .252-.274.95.95 0 0 0 .113-.719l-.248-1.555c-.153-1-.464-2.472-.714-4.352l-.475-3.102-.456-3.66c-.317-2.608-.57-5.562-.8-8.785-.107-1.612-.136-3.288-.243-5.027s-.102-3.535-.047-5.38c-.025-3.698.204-7.595.53-11.606.08-1.004.2-2.016.318-3.035s.224-2.045.38-3.07l.43-3.106.544-3.12c.776-4.225 1.77-8.408 2.98-12.53a117 117 0 0 1 4.163-12.246 105.55 105.55 0 0 1 5.454-11.276c.498-.915 1.024-1.8 1.508-2.617l1.543-2.54c1.088-1.624 2.113-3.256 3.258-4.7 2.12-3.093 4.377-5.798 6.508-8.276 1.083-1.222 2.174-2.337 3.18-3.424l3.012-2.956 2.74-2.495c.873-.754 1.683-1.36 2.45-2.006 1.437-1.2 2.684-2.085 3.508-2.7l1.247-.904a.95.95 0 0 0-1.117-1.529l-.02.007zm-53.95 125.092l2.243 1.842c.73.612 1.413 1.316 2.103 1.998a49.34 49.34 0 0 1 3.846 4.331l1.722 2.325 1.58 2.4 2.754 5.05a1.71 1.71 0 0 0 .627.732c.275.18.594.276.922.28a1.72 1.72 0 0 0 1.571-.977l.126-.255 1.085-2.388 1.12-2.34 1.1-2.346 1.078-2.353 1.95-4.8c.607-1.66 1.078-3.368 1.4-5.105.04-.27-.028-.543-.185-.764a1.06 1.06 0 0 0-.662-.427 1.01 1.01 0 0 0-.48.004 1 1 0 0 0-.423.227 23.3 23.3 0 0 0-1.715 2.1l-1.48 2.22a38.92 38.92 0 0 0-2.474 4.686l-2.02 4.88-1.673 5.03 3.202-.263-1.808-2.438-1.892-2.353-1.956-2.288-2.005-2.24-2.06-2.183-6.394-6.333a1 1 0 0 0-.73-.227.99.99 0 0 0-.677.354 1 1 0 0 0 .007 1.414l.192.204z"/></svg>
